X:1
T:Alborada
T:Alborada
T:CAPRICHO
T:F. Tarrega
T:by IMSLP - Pubblico dominio
T:by IMSLP - Pubblico dominio
C:F. Tarrega
Z:by IMSLP - Pubblico dominio
%%score ( 1 2 )
L:1/8
Q:1/4=70
M:2/4
K:A
V:1 treble-8 nm="Classical Guitar" snm="Guit."
V:2 treble-8 
V:1
"^Andante""_La 6. en Ré" !4!e'/!1!c'/!2!a/!open!e/ |:!-(!{/!2!a} !-)!!2!cc f(3(f/g/f/) | %2
 !open!e2 (e'/c'/)a/e/ |!-(!{/a} !-)!c[Ac] f(3(f/g/f/) | e2 c/e/a/c'/ | e'd' f'd' | %6
 [eac']2 A,/C/E/A/ | !open!e"^miz""_ar." (3(e'/f'/e'/)"_ar." (3(d'/e'/d'/)"_ar." (3(a/d'/c'/) | %8
"_ar." b2 (e'/c'/)a/e/ |!-(!{/a} !-)!cc f(3(f/g/f/) | e2 (c'/a/)f/c/ |!-(!{/a} !-)!cc f(3(f/g/f/) | %12
 e2 (e/a/)c'/e'/ | !4!a'[c'e'] [af'][fd'] | [ec']2 A/B/A/B/ | %15
"^C.2" c/d/^d/!-(!!4!e/ !-)!!4!e'[dg] |1 a2 (e'/c'/)a/e/ :|2 %17
 [ca]2"^miz.""_ar." (3(d'/e'/d'/)"_ar." (3(c'/d'/c'/) || %18
[K:D]"_ar." (3(b/c'/b/)"_ar." (3(a/b/a/)"_ar." (3(f/g/f/)"_ar." (3(e/f/e/) | %19
"_ar." d z"^C.10.""_ar." D/f/!1!a/!1!d'/ | f'd' !12![GB][gd'] | %21
 a2"^miz.""_ar." (3(d'/e'/d'/)"_ar." (3(c'/d'/c'/) | %22
"_ar." (3(b/c'/b/)"_ar." (3(a/b/a/)"_ar." (3(f/g/f/)"_ar." (3(e/f/e/) | %23
"_ar." d2"^C.6." ^G,/"^a"B/d/=f/ | (^f/4g/4^g/4a/4) (b/4=c'/4^c'/4!4!d'/4) !4!f'[gae'] | %25
 [dfd']2"^miz.""^miz.""_ar.""_ar." (3((d'/e'/d'/))"_ar.""_ar." (3((c'/d'/c'/)) | %26
"_ar" (3(b/c'/b/)"_ar" (3(a/b/a/)"_ar" (3(f/g/f/)"_ar" (3(e/f/e/) | %27
"_ar" d2"^C.10.""_ar" D/f/a/d'/ | f'd'"_ar." !12![GB][gd'] | %29
 [gc']2"^miz.""_ar" (3(d'/e'/d'/)"_ar" (3(c'/d'/c'/) | %30
"_ar" (3(b/c'/b/)"_ar" (3(a/b/a/)"_ar" (3(f/g/f/)"_ar" (3(e/f/e/) | %31
"_ar" d2"^C.6." ^G,/"^a"B/d/=f/ | (^f/4g/4^g/4a/4) (b/4=c'/4^c'/4!-(!!4!d'/4 !-)!!4!a')[gc'] | %33
 [dfd']2 z2!D.C.! |] %34
V:2
 x2 |: A,[EA] A,A | A,[Ad] z2 | A,E A,[Ad] | A,[Ac] z2 | A,[ea] A,[fa] | A,2 x2 | %7
w: |||||||
 c !16!A, !12!B !19!D | !19!A,4 | A,A A,A | A,[Ac] z2 | A,A A,[Ad] | A,[Ac] z2 | A,2 D,2 | %14
w: |||||||
 A,2 [=F,^D][F,D] | !1![E,E]2 z E |1 [A,c]2 z2 :|2 A,2 B D ||[K:D] B D, D D, | !16!D, z !12!D2 | %20
w: |||* 19 19|19 16 19 19||
 D,[fa] !12!D[EB] | [A,c]2 !19!B !19!D | !19!G !15!D, !19!D !19!D, | !15!D,2 ^G,2 | [A,A]2 z A, | %25
w: |||||
 D2 !19!B !19!D | !19!B !16!D, !19!D !19!D, | !16!D,2 !12!D2 | D,[fa] !12!D[EB] | %29
w: ||||
 [A,A]2 !19!B !19!D | !19!G !16!D, !19!D !19!D, | !16!D, x ^G,2 | [A,A]2 z [A,e] | D2 z2 |] %34
w: |||||

